X: 37170
T: Sir George Clark Of Penicuik
R: strathspey
M: 4/4
K: Gmajor
a|b<g g>e d>B B>d|c<e c<eA2A/B/c|B2B>A G<E E>B|c>A B>G G/F/E/D/ Dg/a/|
b<g g>e d>B B>d|c<e c<eA2A/B/c|B2B>A G<E E>G|G/F/E/D/ DE/F/G2d>c|
B<d d>B d<b b>a|g>e e>dd2Ac|B<dd2e>Bc2|d>A B>G G/F/E/D/ DE/F/|
G>BB2B<dd2|g>d e>dd2d>g|b<gg2g>e c>c|B>G A>FG2G||

